;FLAVOR:Marlin
;TIME:746
;Filament used: 0.452178m
;Layer height: 0.2
;MINX:78.45
;MINY:97.5
;MINZ:0.2
;MAXX:156.55
;MAXY:137.5
;MAXZ:3
;Generated with Cura_SteamEngine master
M140 S70
M105
M190 S70
M104 S210
M105
M109 S210
M82 ;absolute extrusion mode
; Ender 3 Custom Start G-code
G92 E0 ; Reset Extruder
G28 ; Home all axes
G1 Z2.0 F3000 ; Move Z Axis up little to prevent scratching of Heat Bed
G1 X0.1 Y20 Z0.3 F5000.0 ; Move to start position
G1 X0.1 Y200.0 Z0.3 F1500.0 E15 ; Draw the first line
G1 X0.4 Y200.0 Z0.3 F5000.0 ; Move to side a little
G1 X0.4 Y20 Z0.3 F1500.0 E30 ; Draw the second line
G92 E0 ; Reset Extruder
G1 Z2.0 F3000 ; Move Z Axis up little to prevent scratching of Heat Bed
G1 X5 Y20 Z0.3 F5000.0 ; Move over to prevent blob squish
G92 E0
G92 E0
G1 F1500 E-6.5
;LAYER_COUNT:15
;LAYER:0
M107
G0 F6000 X82.336 Y100.127 Z0.2
;TYPE:SKIRT
G1 F1500 E0
G1 F1200 X83.076 Y99.551 E0.03119
G1 X83.862 Y99.039 E0.06239
G1 X84.689 Y98.597 E0.09358
G1 X85.551 Y98.227 E0.12478
G1 X86.441 Y97.931 E0.15597
G1 X87.353 Y97.713 E0.18716
G1 X88.28 Y97.572 E0.21835
G1 X89.151 Y97.513 E0.24738
G1 X89.472 Y97.504 E0.25806
G1 X89.78 Y97.5 E0.26831
G1 X144.843 Y97.5 E2.09971
G1 X145.699 Y97.511 E2.12819
G1 X146.635 Y97.565 E2.15937
G1 X147.563 Y97.697 E2.19054
G1 X148.477 Y97.909 E2.22175
G1 X149.369 Y98.198 E2.25294
G1 X150.234 Y98.561 E2.28414
G1 X151.064 Y98.997 E2.31532
G1 X151.855 Y99.502 E2.34653
G1 X152.599 Y100.073 E2.37773
G1 X153.292 Y100.705 E2.40892
G1 X153.929 Y101.393 E2.44011
G1 X154.504 Y102.134 E2.4713
G1 X155.015 Y102.92 E2.50249
G1 X155.457 Y103.748 E2.5337
G1 X155.826 Y104.61 E2.56489
G1 X156.121 Y105.5 E2.59607
G1 X156.339 Y106.412 E2.62726
G1 X156.479 Y107.34 E2.65848
G1 X156.537 Y108.201 E2.68718
G1 X156.546 Y108.521 E2.69783
G1 X156.55 Y108.83 E2.7081
G1 X156.549 Y125.9 E3.27586
G1 X156.54 Y126.627 E3.30004
G1 X156.489 Y127.564 E3.33125
G1 X156.357 Y128.492 E3.36242
G1 X156.148 Y129.406 E3.39361
G1 X155.861 Y130.299 E3.42481
G1 X155.499 Y131.165 E3.45602
G1 X155.065 Y131.996 E3.48721
G1 X154.561 Y132.787 E3.5184
G1 X153.992 Y133.532 E3.54958
G1 X153.361 Y134.227 E3.5808
G1 X152.674 Y134.865 E3.61199
G1 X151.935 Y135.442 E3.64317
G1 X151.149 Y135.954 E3.67437
G1 X150.323 Y136.397 E3.70554
G1 X149.461 Y136.769 E3.73677
G1 X148.572 Y137.065 E3.76793
G1 X147.66 Y137.285 E3.79914
G1 X146.733 Y137.426 E3.83032
G1 X145.849 Y137.487 E3.8598
G1 X145.528 Y137.496 E3.87048
G1 X145.22 Y137.5 E3.88072
G1 X90.015 Y137.499 E5.71685
G1 X89.317 Y137.49 E5.74007
G1 X88.381 Y137.438 E5.77124
G1 X87.452 Y137.306 E5.80245
G1 X86.538 Y137.096 E5.83365
G1 X85.645 Y136.809 E5.86484
G1 X84.78 Y136.446 E5.89604
G1 X83.949 Y136.012 E5.92723
G1 X83.158 Y135.508 E5.95842
G1 X82.413 Y134.938 E5.98962
G1 X81.719 Y134.307 E6.02082
G1 X81.082 Y133.62 E6.05198
G1 X80.505 Y132.88 E6.08319
G1 X79.993 Y132.094 E6.11439
G1 X79.55 Y131.267 E6.14559
G1 X79.179 Y130.406 E6.17677
G1 X78.883 Y129.516 E6.20797
G1 X78.664 Y128.604 E6.23917
G1 X78.523 Y127.677 E6.27035
G1 X78.463 Y126.788 E6.29999
G1 X78.454 Y126.455 E6.31107
G1 X78.45 Y126.158 E6.32095
G1 X78.451 Y109.025 E6.89079
G1 X78.46 Y108.36 E6.91291
G1 X78.513 Y107.424 E6.94409
G1 X78.645 Y106.495 E6.9753
G1 X78.856 Y105.581 E7.0065
G1 X79.144 Y104.689 E7.03768
G1 X79.507 Y103.824 E7.06888
G1 X79.942 Y102.993 E7.10008
G1 X80.446 Y102.203 E7.13124
G1 X81.016 Y101.458 E7.16244
G1 X81.648 Y100.764 E7.19366
G1 X82.336 Y100.127 E7.22485
G0 F6000 X82.724 Y100.323
G1 F1200 X83.46 Y99.77 E7.25547
G1 X84.241 Y99.282 E7.2861
G1 X85.061 Y98.864 E7.31671
G1 X85.915 Y98.519 E7.34734
G1 X86.795 Y98.249 E7.37796
G1 X87.695 Y98.057 E7.40857
G1 X88.609 Y97.943 E7.4392
G1 X89.162 Y97.913 E7.45762
G1 X89.483 Y97.904 E7.4683
G1 X89.78 Y97.9 E7.47818
G1 X144.843 Y97.9 E9.30958
G1 X145.693 Y97.911 E9.33786
G1 X146.612 Y97.964 E9.36847
G1 X147.523 Y98.097 E9.3991
G1 X148.419 Y98.308 E9.42971
G1 X149.293 Y98.596 E9.46032
G1 X150.14 Y98.959 E9.49097
G1 X150.951 Y99.394 E9.52158
G1 X151.721 Y99.898 E9.55219
G1 X152.445 Y100.467 E9.58281
G1 X153.117 Y101.097 E9.61345
G1 X153.732 Y101.782 E9.64407
G1 X154.285 Y102.518 E9.67469
G1 X154.772 Y103.299 E9.7053
G1 X155.189 Y104.12 E9.73593
G1 X155.534 Y104.974 E9.76656
G1 X155.803 Y105.854 E9.79717
G1 X155.995 Y106.755 E9.82781
G1 X156.108 Y107.668 E9.85841
G1 X156.137 Y108.212 E9.87653
G1 X156.146 Y108.532 E9.88717
G1 X156.15 Y108.83 E9.89709
G1 X156.149 Y125.895 E10.46467
G1 X156.14 Y126.622 E10.48885
G1 X156.089 Y127.541 E10.51946
G1 X155.958 Y128.453 E10.55011
G1 X155.748 Y129.349 E10.58072
G1 X155.462 Y130.224 E10.61134
G1 X155.101 Y131.071 E10.64196
G1 X154.667 Y131.883 E10.67258
G1 X154.165 Y132.655 E10.70321
G1 X153.597 Y133.38 E10.73384
G1 X152.969 Y134.053 E10.76446
G1 X152.285 Y134.669 E10.79507
G1 X151.55 Y135.223 E10.82569
G1 X150.77 Y135.712 E10.85631
G1 X149.95 Y136.131 E10.88693
G1 X149.097 Y136.477 E10.91755
G1 X148.217 Y136.748 E10.94818
G1 X147.317 Y136.941 E10.97879
G1 X146.403 Y137.056 E11.00943
G1 X145.838 Y137.087 E11.02825
G1 X145.517 Y137.096 E11.03893
G1 X145.22 Y137.1 E11.04881
G1 X90.02 Y137.099 E12.88477
G1 X89.322 Y137.09 E12.90799
G1 X88.403 Y137.038 E12.9386
G1 X87.492 Y136.907 E12.96921
G1 X86.596 Y136.697 E12.99982
G1 X85.721 Y136.41 E13.03045
G1 X84.874 Y136.048 E13.06109
G1 X84.062 Y135.614 E13.09171
G1 X83.291 Y135.112 E13.12231
G1 X82.566 Y134.544 E13.15294
G1 X81.893 Y133.915 E13.18358
G1 X81.278 Y133.231 E13.21417
G1 X80.724 Y132.496 E13.24479
G1 X80.236 Y131.715 E13.27542
G1 X79.817 Y130.895 E13.30604
G1 X79.471 Y130.042 E13.33666
G1 X79.201 Y129.162 E13.36728
G1 X79.008 Y128.261 E13.39792
G1 X78.894 Y127.348 E13.42853
G1 X78.863 Y126.777 E13.44755
G1 X78.854 Y126.444 E13.45862
G1 X78.85 Y126.158 E13.46814
G1 X78.851 Y109.031 E14.03778
G1 X78.86 Y108.366 E14.0599
G1 X78.912 Y107.446 E14.09055
G1 X79.044 Y106.535 E14.12117
G1 X79.255 Y105.639 E14.15179
G1 X79.542 Y104.764 E14.18241
G1 X79.905 Y103.918 E14.21303
G1 X80.339 Y103.106 E14.24366
G1 X80.842 Y102.335 E14.27427
G1 X81.411 Y101.611 E14.3049
G1 X82.039 Y100.939 E14.33549
G1 X82.724 Y100.323 E14.36613
G0 F6000 X83.112 Y100.524
G1 F1200 X83.844 Y99.994 E14.39619
G1 X84.619 Y99.531 E14.42622
G1 X85.432 Y99.138 E14.45625
G1 X86.277 Y98.818 E14.4863
G1 X87.146 Y98.575 E14.51632
G1 X88.034 Y98.409 E14.54636
G1 X89.173 Y98.313 E14.58438
G1 X89.494 Y98.304 E14.59506
G1 X89.78 Y98.3 E14.60457
G1 X144.843 Y98.3 E16.43598
G1 X145.687 Y98.311 E16.46405
G1 X146.589 Y98.364 E16.4941
G1 X147.482 Y98.496 E16.52413
G1 X148.36 Y98.707 E16.55416
G1 X149.216 Y98.995 E16.5842
G1 X150.043 Y99.357 E16.61423
G1 X150.835 Y99.792 E16.64428
G1 X151.586 Y100.294 E16.67432
G1 X152.289 Y100.861 E16.70436
G1 X152.939 Y101.488 E16.7344
G1 X153.531 Y102.17 E16.76444
G1 X154.061 Y102.901 E16.79447
G1 X154.523 Y103.677 E16.82451
G1 X154.916 Y104.49 E16.85454
G1 X155.234 Y105.335 E16.88457
G1 X155.477 Y106.205 E16.91461
G1 X155.642 Y107.093 E16.94466
G1 X155.737 Y108.223 E16.98237
G1 X155.746 Y108.543 E16.99302
G1 X155.75 Y108.83 E17.00257
G1 X155.749 Y125.89 E17.56998
G1 X155.74 Y126.617 E17.59417
G1 X155.689 Y127.519 E17.62421
G1 X155.558 Y128.413 E17.65427
G1 X155.349 Y129.291 E17.68428
G1 X155.063 Y130.148 E17.71433
G1 X154.702 Y130.976 E17.74438
G1 X154.27 Y131.768 E17.77438
G1 X153.769 Y132.52 E17.80444
G1 X153.203 Y133.224 E17.83448
G1 X152.578 Y133.875 E17.8645
G1 X151.897 Y134.469 E17.89455
G1 X151.166 Y135 E17.9246
G1 X150.392 Y135.464 E17.95462
G1 X149.579 Y135.858 E17.98467
G1 X148.735 Y136.178 E18.01469
G1 X147.865 Y136.423 E18.04475
G1 X146.978 Y136.589 E18.07476
G1 X145.827 Y136.687 E18.11318
G1 X145.506 Y136.696 E18.12387
G1 X145.22 Y136.7 E18.13338
G1 X90.025 Y136.699 E19.96917
G1 X89.327 Y136.69 E19.99239
G1 X88.426 Y136.639 E20.02241
G1 X87.532 Y136.507 E20.05246
G1 X86.654 Y136.298 E20.08248
G1 X85.797 Y136.011 E20.11254
G1 X84.97 Y135.65 E20.14255
G1 X84.177 Y135.217 E20.1726
G1 X83.426 Y134.716 E20.20263
G1 X82.722 Y134.15 E20.23267
G1 X82.071 Y133.524 E20.26271
G1 X81.478 Y132.843 E20.29275
G1 X80.948 Y132.112 E20.32278
G1 X80.484 Y131.337 E20.35282
G1 X80.09 Y130.524 E20.38287
G1 X79.77 Y129.68 E20.41289
G1 X79.526 Y128.81 E20.44294
G1 X79.36 Y127.922 E20.47299
G1 X79.263 Y126.767 E20.51154
G1 X79.254 Y126.434 E20.52262
G1 X79.25 Y126.158 E20.5318
G1 X79.251 Y109.036 E21.10128
G1 X79.26 Y108.371 E21.1234
G1 X79.312 Y107.469 E21.15345
G1 X79.444 Y106.576 E21.18348
G1 X79.654 Y105.698 E21.2135
G1 X79.941 Y104.841 E21.24356
G1 X80.303 Y104.014 E21.27359
G1 X80.736 Y103.222 E21.30361
G1 X81.238 Y102.471 E21.33366
G1 X81.805 Y101.767 E21.36372
G1 X82.431 Y101.117 E21.39374
G1 X83.112 Y100.524 E21.42377
G1 F1500 E14.92377
;MESH:test.stl
G0 F6000 X89.87 Y107.835
G0 X89.87 Y108.92
G0 X133.268 Y109.282
G0 X133.268 Y109.718
G0 X128.768 Y109.718
G0 X129.122 Y124.928
G0 X133.622 Y124.928
G0 X133.622 Y125.928
G0 X139.478 Y125.928
G0 X139.65 Y125.1
;TYPE:WALL-INNER
G1 F1500 E21.42377
G1 F1200 X144.15 Y125.1 E21.57344
G1 X144.15 Y109.9 E22.07899
G1 X139.65 Y109.9 E22.22866
G1 X139.65 Y109.1 E22.25527
G1 X144.95 Y109.1 E22.43155
G1 X144.95 Y125.9 E22.99032
G1 X139.65 Y125.9 E23.1666
G1 X139.65 Y125.1 E23.19321
G0 F6000 X139.478 Y125.928
G0 X133.622 Y125.928
G0 X133.45 Y125.1
G1 F1200 X133.45 Y125.9 E23.21982
G1 X90.05 Y125.9 E24.66331
G1 X90.05 Y109.1 E25.22208
G1 X133.45 Y109.1 E26.66557
G1 X133.45 Y109.9 E26.69217
G1 X128.95 Y109.9 E26.84185
G1 X128.95 Y125.1 E27.3474
G1 X133.45 Y125.1 E27.49707
G0 F6000 X133.85 Y124.7
;TYPE:WALL-OUTER
G1 F1200 X133.85 Y125.7 E27.53033
G1 X139.25 Y125.7 E27.70993
G1 X139.25 Y124.7 E27.74319
G1 X143.75 Y124.7 E27.89287
G1 X143.75 Y110.3 E28.37181
G1 X139.25 Y110.3 E28.52148
G1 X139.25 Y109.3 E28.55474
G1 X133.85 Y109.3 E28.73435
G1 X133.85 Y110.3 E28.76761
G1 X129.35 Y110.3 E28.91728
G1 X129.35 Y124.7 E29.39622
G1 X133.85 Y124.7 E29.54589
G1 F1500 E23.04589
G0 F6000 X133.58 Y125
G0 X131.103 Y125.27
G0 X131.103 Y123.835
G0 X123.915 Y123.473
G0 X123.847 Y123.847
G0 X111.153 Y123.847
G0 X111.084 Y122.828
G0 X104.785 Y122.512
G0 X106.22 Y122.512
G0 X106.05 Y125.1
;TYPE:WALL-INNER
G1 F1500 E29.54589
G1 F1200 X106.05 Y109.9 E30.05145
G1 X90.85 Y109.9 E30.557
G1 X90.85 Y125.1 E31.06256
G1 X106.05 Y125.1 E31.56811
G0 F6000 X105.65 Y124.7
;TYPE:WALL-OUTER
G1 F1200 X105.65 Y110.3 E32.04706
G1 X91.25 Y110.3 E32.526
G1 X91.25 Y124.7 E33.00495
G1 X105.65 Y124.7 E33.48389
G1 F1500 E26.98389
G0 F6000 X105.95 Y124.7
G0 X104.123 Y125.27
G0 X104.123 Y123.835
G0 X111.153 Y123.847
G0 X109.71 Y125.1
G0 X109.9 Y125.1
;TYPE:WALL-INNER
G1 F1500 E33.48389
G1 F1200 X125.1 Y125.1 E33.98945
G1 X125.1 Y109.9 E34.495
G1 X109.9 Y109.9 E35.00056
G1 X109.9 Y125.1 E35.50611
G0 F6000 X110.3 Y124.7
;TYPE:WALL-OUTER
G1 F1200 X124.7 Y124.7 E35.98506
G1 X124.7 Y110.3 E36.464
G1 X110.3 Y110.3 E36.94295
G1 X110.3 Y124.7 E37.42189
G1 F1500 E30.92189
G0 F6000 X110 Y124.7
G0 X125.296 Y125.296
G0 X128.74 Y125.31
G0 X133.609 Y125.524
G0 X133.622 Y125.928
G0 X145.05 Y126.03
G0 X145.35 Y126.3
G1 F1500 E37.42189
G1 F1200 X89.65 Y126.3 E39.27448
G1 X89.65 Y108.7 E39.85986
G1 X145.35 Y108.7 E41.71245
G1 X145.35 Y126.3 E42.29783
G0 F6000 X145.08 Y126.03
G0 X144.84 Y125.51
G0 X144.56 Y125.51
;TYPE:SKIN
G1 F1200 X140.04 Y125.51 E42.44817
G1 X140.04 Y125.49 E42.44883
G1 X144.54 Y125.49 E42.5985
G1 X144.54 Y109.51 E43.13
G1 X140.04 Y109.51 E43.27967
G1 X140.04 Y109.49 E43.28033
G1 X144.56 Y109.49 E43.43067
G1 X144.56 Y125.51 E43.9635
G0 F6000 X144.84 Y125.51
G0 X139.478 Y125.928
G0 X133.622 Y125.928
G0 X133.34 Y125.51
G0 X133.06 Y125.51
G1 F1200 X90.44 Y125.51 E45.38104
G1 X90.44 Y109.49 E45.91387
G1 X133.06 Y109.49 E47.33142
G1 X133.06 Y109.51 E47.33208
G1 X128.56 Y109.51 E47.48175
G1 X128.56 Y125.49 E48.01325
G1 X133.06 Y125.49 E48.16292
G1 X133.06 Y125.51 E48.16359
G0 F6000 X133.34 Y125.51
G0 X125.49 Y125.79
G0 X125.49 Y125.49
G1 F1200 X125.49 Y109.51 E48.69508
G1 X109.51 Y109.51 E49.22658
G1 X109.51 Y125.49 E49.75808
G1 X125.49 Y125.49 E50.28958
G0 F6000 X125.49 Y125.79
G0 X106.44 Y125.79
G0 X106.44 Y125.49
G1 F1200 X106.44 Y109.51 E50.82107
G1 X90.46 Y109.51 E51.35257
G1 X90.46 Y125.49 E51.88407
G1 X106.44 Y125.49 E52.41556
G0 F6000 X106.681 Y125.348
G1 F1200 X106.599 Y125.267 E52.4194
G0 F6000 X106.599 Y124.701
G1 F1200 X107.246 Y125.348 E52.44983
G0 F6000 X107.812 Y125.348
G1 F1200 X106.599 Y124.136 E52.50686
G0 F6000 X106.599 Y123.57
G1 F1200 X108.378 Y125.348 E52.59052
G0 F6000 X108.943 Y125.348
G1 F1200 X106.599 Y123.004 E52.70077
G0 F6000 X106.599 Y122.439
G1 F1200 X109.349 Y125.189 E52.83012
G0 F6000 X109.349 Y124.623
G1 F1200 X106.599 Y121.873 E52.95947
G0 F6000 X106.599 Y121.307
G1 F1200 X109.349 Y124.057 E53.08883
G0 F6000 X109.349 Y123.491
G1 F1200 X106.599 Y120.742 E53.21815
G0 F6000 X106.599 Y120.176
G1 F1200 X109.349 Y122.926 E53.34751
G0 F6000 X109.349 Y122.36
G1 F1200 X106.599 Y119.61 E53.47686
G0 F6000 X106.599 Y119.044
G1 F1200 X109.349 Y121.794 E53.60621
G0 F6000 X109.349 Y121.229
G1 F1200 X106.599 Y118.479 E53.73556
G0 F6000 X106.599 Y117.913
G1 F1200 X109.349 Y120.663 E53.86491
G0 F6000 X109.349 Y120.097
G1 F1200 X106.599 Y117.347 E53.99426
G0 F6000 X106.599 Y116.782
G1 F1200 X109.349 Y119.532 E54.12362
G0 F6000 X109.349 Y118.966
G1 F1200 X106.599 Y116.216 E54.25297
G0 F6000 X106.599 Y115.65
G1 F1200 X109.349 Y118.4 E54.38232
G0 F6000 X109.349 Y117.835
G1 F1200 X106.599 Y115.085 E54.51167
G0 F6000 X106.599 Y114.519
G1 F1200 X109.349 Y117.269 E54.64102
G0 F6000 X109.349 Y116.703
G1 F1200 X106.599 Y113.953 E54.77037
G0 F6000 X106.599 Y113.388
G1 F1200 X109.349 Y116.138 E54.89972
G0 F6000 X109.349 Y115.572
G1 F1200 X106.599 Y112.822 E55.02908
G0 F6000 X106.599 Y112.256
G1 F1200 X109.349 Y115.006 E55.15843
G0 F6000 X109.349 Y114.44
G1 F1200 X106.599 Y111.691 E55.28776
G0 F6000 X106.599 Y111.125
G1 F1200 X109.349 Y113.875 E55.41711
G0 F6000 X109.349 Y113.309
G1 F1200 X106.599 Y110.559 E55.54646
G0 F6000 X106.599 Y109.993
G1 F1200 X109.349 Y112.743 E55.67581
G0 F6000 X109.349 Y112.178
G1 F1200 X106.821 Y109.649 E55.79474
G0 F6000 X107.386 Y109.649
G1 F1200 X109.349 Y111.612 E55.88708
G0 F6000 X109.349 Y111.046
G1 F1200 X107.952 Y109.649 E55.95279
G0 F6000 X108.518 Y109.649
G1 F1200 X109.349 Y110.481 E55.9919
G0 F6000 X109.349 Y109.915
G1 F1200 X109.083 Y109.649 E56.00441
G1 F1500 E49.50441
G0 F6000 X109.083 Y109.21
G0 X125.21 Y109.31
G0 X125.21 Y109.71
G0 X125.649 Y109.81
G1 F1500 E56.00441
G1 F1200 X128.399 Y112.56 E56.13376
G0 F6000 X128.399 Y113.125
G1 F1200 X125.649 Y110.375 E56.26311
G0 F6000 X125.649 Y110.941
G1 F1200 X128.399 Y113.691 E56.39247
G0 F6000 X128.399 Y114.257
G1 F1200 X125.649 Y111.507 E56.52182
G0 F6000 X125.649 Y112.072
G1 F1200 X128.399 Y114.822 E56.65117
G0 F6000 X128.399 Y115.388
G1 F1200 X125.649 Y112.638 E56.78052
G0 F6000 X125.649 Y113.204
G1 F1200 X128.399 Y115.954 E56.90987
G0 F6000 X128.399 Y116.519
G1 F1200 X125.649 Y113.769 E57.03922
G0 F6000 X125.649 Y114.335
G1 F1200 X128.399 Y117.085 E57.16857
G0 F6000 X128.399 Y117.651
G1 F1200 X125.649 Y114.901 E57.29793
G0 F6000 X125.649 Y115.467
G1 F1200 X128.399 Y118.216 E57.42725
G0 F6000 X128.399 Y118.782
G1 F1200 X125.649 Y116.032 E57.55661
G0 F6000 X125.649 Y116.598
G1 F1200 X128.399 Y119.348 E57.68596
G0 F6000 X128.399 Y119.913
G1 F1200 X125.649 Y117.164 E57.81529
G0 F6000 X125.649 Y117.729
G1 F1200 X128.399 Y120.479 E57.94464
G0 F6000 X128.399 Y121.045
G1 F1200 X125.649 Y118.295 E58.07399
G0 F6000 X125.649 Y118.861
G1 F1200 X128.399 Y121.611 E58.20334
G0 F6000 X128.399 Y122.176
G1 F1200 X125.649 Y119.426 E58.33269
G0 F6000 X125.649 Y119.992
G1 F1200 X128.399 Y122.742 E58.46204
G0 F6000 X128.399 Y123.308
G1 F1200 X125.649 Y120.558 E58.59139
G0 F6000 X125.649 Y121.123
G1 F1200 X128.399 Y123.873 E58.72075
G0 F6000 X128.399 Y124.439
G1 F1200 X125.649 Y121.689 E58.8501
G0 F6000 X125.649 Y122.255
G1 F1200 X128.399 Y125.005 E58.97945
G0 F6000 X128.177 Y125.349
G1 F1200 X125.649 Y122.82 E59.09838
G0 F6000 X125.649 Y123.386
G1 F1200 X127.612 Y125.349 E59.19072
G0 F6000 X127.046 Y125.349
G1 F1200 X125.649 Y123.952 E59.25643
G0 F6000 X125.649 Y124.517
G1 F1200 X126.48 Y125.349 E59.29554
