;FLAVOR:Marlin
;TIME:30061
;Filament used: 19.9877m
;Layer height: 0.2
;MINX:29.372
;MINY:36.75
;MINZ:0.2
;MAXX:205.628
;MAXY:198.25
;MAXZ:10
;Generated with Cura_SteamEngine master
M140 S70
M105
M190 S70
M104 S210
M105
M109 S210
M82 ;absolute extrusion mode
; Ender 3 Custom Start G-code
G92 E0 ; Reset Extruder
G28 ; Home all axes
G1 Z2.0 F3000 ; Move Z Axis up little to prevent scratching of Heat Bed
G1 X0.1 Y20 Z0.3 F5000.0 ; Move to start position
G1 X0.1 Y200.0 Z0.3 F1500.0 E15 ; Draw the first line
G1 X0.4 Y200.0 Z0.3 F5000.0 ; Move to side a little
G1 X0.4 Y20 Z0.3 F1500.0 E30 ; Draw the second line
G92 E0 ; Reset Extruder
G1 Z2.0 F3000 ; Move Z Axis up little to prevent scratching of Heat Bed
G1 X5 Y20 Z0.3 F5000.0 ; Move over to prevent blob squish
G92 E0
G92 E0
G1 F1500 E-6.5
;LAYER_COUNT:50
;LAYER:0
M107
G0 F6000 X34.137 Y39.444 Z0.2
;TYPE:SKIRT
G1 F1500 E0
G1 F1200 X34.918 Y38.877 E0.0321
G1 X35.039 Y38.797 E0.03692
G1 X35.843 Y38.314 E0.06812
G1 X36.391 Y38.035 E0.08857
G1 X36.606 Y37.933 E0.09649
G1 X37.47 Y37.567 E0.1277
G1 X38.121 Y37.347 E0.15055
G1 X38.394 Y37.264 E0.16004
G1 X39.437 Y37.002 E0.19581
G1 X40.393 Y36.851 E0.228
G1 X41.097 Y36.795 E0.25149
G1 X41.639 Y36.769 E0.26954
G1 X42.008 Y36.757 E0.28182
G1 X42.584 Y36.75 E0.30098
G1 X192.651 Y36.752 E5.29223
G1 X193.203 Y36.76 E5.31059
G1 X193.882 Y36.791 E5.33319
G1 X194.157 Y36.812 E5.34237
G1 X195.2 Y36.942 E5.37733
G1 X195.419 Y36.98 E5.38472
G1 X196.335 Y37.18 E5.4159
G1 X197.463 Y37.542 E5.4553
G1 X197.662 Y37.618 E5.46239
G1 X198.685 Y38.069 E5.49957
G1 X198.824 Y38.139 E5.50475
G1 X199.643 Y38.597 E5.53596
G1 X200.441 Y39.138 E5.56803
G1 X200.683 Y39.318 E5.57806
G1 X201.411 Y39.909 E5.60925
G1 X202.112 Y40.588 E5.64171
G1 X202.319 Y40.807 E5.65173
G1 X202.934 Y41.515 E5.68292
G1 X203.453 Y42.225 E5.71217
G1 X203.531 Y42.341 E5.71682
G1 X204.021 Y43.141 E5.74802
G1 X204.344 Y43.77 E5.77154
G1 X204.443 Y43.979 E5.77923
G1 X204.893 Y45.08 E5.81879
G1 X204.968 Y45.296 E5.8264
G1 X205.238 Y46.194 E5.85759
G1 X205.368 Y46.768 E5.87716
G1 X205.387 Y46.864 E5.88042
G1 X205.529 Y47.791 E5.91161
G1 X205.583 Y48.475 E5.93443
G1 X205.609 Y49.019 E5.95254
G1 X205.621 Y49.386 E5.96476
G1 X205.628 Y49.962 E5.98392
G1 X205.627 Y185.176 E10.48115
G1 X205.622 Y185.577 E10.49449
G1 X205.61 Y185.968 E10.5075
G1 X205.583 Y186.53 E10.52621
G1 X205.498 Y187.464 E10.55741
G1 X205.237 Y188.789 E10.60232
G1 X205.171 Y189.041 E10.61099
G1 X204.895 Y189.937 E10.64217
G1 X204.641 Y190.587 E10.66538
G1 X204.578 Y190.734 E10.6707
G1 X204.172 Y191.58 E10.70191
G1 X203.741 Y192.317 E10.73031
G1 X203.549 Y192.618 E10.74218
G1 X203.011 Y193.386 E10.77337
G1 X202.41 Y194.106 E10.80456
G1 X201.819 Y194.708 E10.83262
G1 X201.559 Y194.953 E10.84451
G1 X200.849 Y195.566 E10.8757
G1 X200.301 Y195.974 E10.89843
G1 X200.245 Y196.013 E10.9007
G1 X199.454 Y196.515 E10.93186
G1 X198.878 Y196.825 E10.95361
G1 X198.55 Y196.989 E10.96581
G1 X197.694 Y197.372 E10.997
G1 X196.448 Y197.783 E11.04064
G1 X196.18 Y197.854 E11.04986
G1 X195.264 Y198.055 E11.08105
G1 X194.762 Y198.132 E11.09794
G1 X194.645 Y198.147 E11.10187
G1 X193.615 Y198.23 E11.13624
G1 X193.257 Y198.242 E11.14815
G1 X192.981 Y198.248 E11.15733
G1 X192.651 Y198.25 E11.16831
G1 X42.348 Y198.248 E16.16741
G1 X41.651 Y198.238 E16.19059
G1 X40.445 Y198.154 E16.2308
G1 X40.205 Y198.124 E16.23884
G1 X39.28 Y197.968 E16.27004
G1 X38.325 Y197.72 E16.30286
G1 X38.082 Y197.645 E16.31132
G1 X37.198 Y197.33 E16.34253
G1 X36.642 Y197.087 E16.36271
G1 X36.506 Y197.023 E16.36771
G1 X35.675 Y196.588 E16.39891
G1 X35.271 Y196.342 E16.41464
G1 X35 Y196.169 E16.42534
G1 X34.232 Y195.631 E16.45652
G1 X33.512 Y195.03 E16.48772
G1 X32.914 Y194.442 E16.51561
G1 X32.668 Y194.181 E16.52754
G1 X32.055 Y193.471 E16.55874
G1 X31.283 Y192.365 E16.6036
G1 X31.15 Y192.147 E16.61209
G1 X30.696 Y191.326 E16.6433
G1 X30.361 Y190.589 E16.67022
G1 X30.277 Y190.384 E16.67759
G1 X29.959 Y189.502 E16.70877
G1 X29.733 Y188.666 E16.73758
G1 X29.671 Y188.395 E16.74682
G1 X29.501 Y187.473 E16.77801
G1 X29.422 Y186.722 E16.80312
G1 X29.407 Y186.511 E16.81016
G1 X29.38 Y185.856 E16.83196
G1 X29.372 Y185.116 E16.85658
G1 X29.374 Y49.681 E21.36116
G1 X29.382 Y49.164 E21.37836
G1 X29.413 Y48.49 E21.4008
G1 X29.433 Y48.23 E21.40948
G1 X29.562 Y47.201 E21.44397
G1 X29.595 Y47.01 E21.45041
G1 X29.794 Y46.094 E21.48159
G1 X30.08 Y45.169 E21.51379
G1 X30.179 Y44.893 E21.52355
G1 X30.694 Y43.688 E21.56713
G1 X30.745 Y43.586 E21.57093
G1 X31.2 Y42.765 E21.60214
G1 X31.754 Y41.945 E21.63506
G1 X31.936 Y41.7 E21.64521
G1 X32.527 Y40.972 E21.6764
G1 X33.21 Y40.266 E21.70907
G1 X33.429 Y40.059 E21.71909
G1 X34.137 Y39.444 E21.75028
G0 F6000 X34.4 Y39.747
G1 F1200 X35.139 Y39.211 E21.78065
G1 X35.26 Y39.131 E21.78547
G1 X36.049 Y38.657 E21.81609
G1 X36.563 Y38.396 E21.83526
G1 X36.778 Y38.294 E21.84317
G1 X37.626 Y37.936 E21.87379
G1 X38.238 Y37.729 E21.89528
G1 X38.511 Y37.646 E21.90477
G1 X39.515 Y37.394 E21.9392
G1 X40.455 Y37.247 E21.97084
G1 X41.116 Y37.194 E21.9929
G1 X41.658 Y37.168 E22.01094
G1 X42.014 Y37.157 E22.02279
G1 X42.584 Y37.15 E22.04175
G1 X192.646 Y37.152 E27.03283
G1 X193.198 Y37.16 E27.05119
G1 X193.851 Y37.19 E27.07294
G1 X194.126 Y37.211 E27.08211
G1 X195.131 Y37.336 E27.11579
G1 X195.35 Y37.374 E27.12319
G1 X196.25 Y37.571 E27.15383
G1 X197.32 Y37.916 E27.19122
G1 X197.519 Y37.992 E27.19831
G1 X198.505 Y38.427 E27.23415
G1 X198.644 Y38.497 E27.23933
G1 X199.447 Y38.946 E27.26993
G1 X200.202 Y39.459 E27.30029
G1 X200.444 Y39.639 E27.31032
G1 X201.158 Y40.22 E27.34093
G1 X201.821 Y40.863 E27.37165
G1 X202.028 Y41.082 E27.38168
G1 X202.631 Y41.778 E27.4123
G1 X203.121 Y42.448 E27.43991
G1 X203.199 Y42.564 E27.44456
G1 X203.679 Y43.35 E27.47519
G1 X203.983 Y43.941 E27.4973
G1 X204.082 Y44.15 E27.50499
G1 X204.516 Y45.211 E27.54312
G1 X204.591 Y45.427 E27.55072
G1 X204.854 Y46.309 E27.58133
G1 X204.975 Y46.846 E27.59964
G1 X204.994 Y46.942 E27.6029
G1 X205.134 Y47.852 E27.63352
G1 X205.184 Y48.494 E27.65494
G1 X205.21 Y49.038 E27.67305
G1 X205.221 Y49.392 E27.68483
G1 X205.228 Y49.962 E27.70379
G1 X205.227 Y185.171 E32.20086
G1 X205.222 Y185.572 E32.2142
G1 X205.211 Y185.949 E32.22674
G1 X205.184 Y186.511 E32.24546
G1 X205.1 Y187.427 E32.27605
G1 X204.85 Y188.688 E32.31881
G1 X204.784 Y188.94 E32.32747
G1 X204.512 Y189.819 E32.35808
G1 X204.273 Y190.43 E32.3799
G1 X204.21 Y190.577 E32.38522
G1 X203.811 Y191.406 E32.41582
G1 X203.404 Y192.101 E32.44261
G1 X203.212 Y192.402 E32.45448
G1 X202.683 Y193.156 E32.48511
G1 X202.092 Y193.862 E32.51574
G1 X201.544 Y194.417 E32.54168
G1 X201.284 Y194.662 E32.55356
G1 X200.588 Y195.263 E32.58415
G1 X200.073 Y195.645 E32.60547
G1 X200.017 Y195.684 E32.60774
G1 X199.239 Y196.177 E32.63838
G1 X198.699 Y196.467 E32.65876
G1 X198.371 Y196.631 E32.67096
G1 X197.531 Y197.007 E32.70157
G1 X196.346 Y197.397 E32.74306
G1 X196.078 Y197.468 E32.75228
G1 X195.178 Y197.664 E32.78292
G1 X194.711 Y197.735 E32.79863
G1 X194.594 Y197.75 E32.80255
G1 X193.601 Y197.83 E32.83569
G1 X193.243 Y197.842 E32.8476
G1 X192.977 Y197.848 E32.85645
G1 X192.651 Y197.85 E32.8673
G1 X42.354 Y197.848 E37.86619
G1 X41.657 Y197.838 E37.88938
G1 X40.494 Y197.757 E37.92815
G1 X40.254 Y197.727 E37.9362
G1 X39.347 Y197.573 E37.9668
G1 X38.443 Y197.338 E37.99786
G1 X38.2 Y197.263 E38.00632
G1 X37.333 Y196.953 E38.03695
G1 X36.813 Y196.725 E38.05583
G1 X36.677 Y196.661 E38.06083
G1 X35.486 Y196.005 E38.10605
G1 X35.215 Y195.832 E38.11675
G1 X34.462 Y195.303 E38.14736
G1 X33.757 Y194.711 E38.17797
G1 X33.205 Y194.167 E38.20375
G1 X32.959 Y193.906 E38.21568
G1 X32.358 Y193.21 E38.24627
G1 X31.624 Y192.157 E38.28896
G1 X31.491 Y191.939 E38.29745
G1 X31.046 Y191.133 E38.32807
G1 X30.731 Y190.437 E38.35348
G1 X30.647 Y190.232 E38.36085
G1 X30.336 Y189.366 E38.39146
G1 X30.123 Y188.577 E38.41864
G1 X30.061 Y188.306 E38.42788
G1 X29.895 Y187.4 E38.45852
G1 X29.821 Y186.694 E38.48213
G1 X29.806 Y186.483 E38.48916
G1 X29.78 Y185.852 E38.51017
G1 X29.772 Y185.116 E38.53465
G1 X29.774 Y49.687 E43.03904
G1 X29.782 Y49.17 E43.05624
G1 X29.812 Y48.521 E43.07784
G1 X29.832 Y48.261 E43.08652
G1 X29.956 Y47.269 E43.11977
G1 X29.989 Y47.078 E43.12621
G1 X30.185 Y46.179 E43.15682
G1 X30.456 Y45.304 E43.18728
G1 X30.555 Y45.028 E43.19704
G1 X31.052 Y43.867 E43.23904
G1 X31.103 Y43.765 E43.24283
G1 X31.55 Y42.96 E43.27346
G1 X32.075 Y42.184 E43.30462
G1 X32.257 Y41.939 E43.31477
G1 X32.837 Y41.224 E43.34539
G1 X33.485 Y40.557 E43.37632
G1 X33.704 Y40.35 E43.38635
G1 X34.4 Y39.747 E43.41698
G0 F6000 X34.662 Y40.05
G1 F1200 X35.36 Y39.545 E43.44563
G1 X35.481 Y39.465 E43.45045
G1 X36.255 Y39 E43.48049
G1 X36.734 Y38.757 E43.49835
G1 X36.949 Y38.655 E43.50627
G1 X37.781 Y38.305 E43.53629
G1 X38.354 Y38.112 E43.5564
G1 X38.627 Y38.029 E43.56589
G1 X39.594 Y37.786 E43.59905
G1 X40.516 Y37.642 E43.63009
G1 X41.135 Y37.594 E43.65074
G1 X41.677 Y37.568 E43.66879
G1 X42.02 Y37.557 E43.6802
G1 X42.584 Y37.55 E43.69896
G1 X192.64 Y37.552 E48.68984
G1 X193.192 Y37.56 E48.7082
G1 X193.821 Y37.589 E48.72915
G1 X194.096 Y37.61 E48.73832
G1 X195.063 Y37.73 E48.77073
G1 X195.282 Y37.768 E48.77812
G1 X196.164 Y37.962 E48.80816
G1 X197.177 Y38.289 E48.84356
G1 X197.376 Y38.365 E48.85065
G1 X198.325 Y38.784 E48.88515
G1 X198.464 Y38.854 E48.89033
G1 X199.252 Y39.295 E48.92036
G1 X199.963 Y39.78 E48.94899
G1 X200.205 Y39.96 E48.95902
G1 X200.906 Y40.53 E48.98907
G1 X201.531 Y41.137 E49.01805
G1 X201.738 Y41.356 E49.02807
G1 X202.328 Y42.04 E49.05811
G1 X202.789 Y42.671 E49.08411
G1 X202.867 Y42.787 E49.08875
G1 X203.338 Y43.558 E49.1188
G1 X203.621 Y44.113 E49.13953
G1 X203.72 Y44.322 E49.14722
G1 X204.138 Y45.342 E49.18388
G1 X204.213 Y45.558 E49.19149
G1 X204.471 Y46.424 E49.22154
G1 X204.583 Y46.924 E49.23858
G1 X204.602 Y47.02 E49.24184
G1 X204.738 Y47.912 E49.27185
G1 X204.784 Y48.513 E49.2919
G1 X204.81 Y49.057 E49.31001
G1 X204.821 Y49.398 E49.32136
G1 X204.828 Y49.962 E49.34012
G1 X204.827 Y185.166 E53.83702
G1 X204.822 Y185.567 E53.85036
G1 X204.811 Y185.929 E53.86241
G1 X204.784 Y186.491 E53.88112
G1 X204.701 Y187.391 E53.91118
G1 X204.463 Y188.586 E53.95171
G1 X204.397 Y188.838 E53.96037
G1 X204.13 Y189.701 E53.99042
G1 X203.905 Y190.272 E54.01083
G1 X203.842 Y190.419 E54.01615
G1 X203.45 Y191.232 E54.04617
G1 X203.066 Y191.886 E54.07139
G1 X202.874 Y192.187 E54.08327
G1 X202.356 Y192.927 E54.11331
G1 X201.773 Y193.617 E54.14336
G1 X201.27 Y194.125 E54.16713
G1 X201.01 Y194.37 E54.17902
G1 X200.326 Y194.96 E54.20906
G1 X199.844 Y195.317 E54.22901
G1 X199.788 Y195.356 E54.23128
G1 X199.025 Y195.839 E54.26131
G1 X198.521 Y196.109 E54.28033
G1 X198.193 Y196.273 E54.29253
G1 X197.368 Y196.641 E54.32257
G1 X196.243 Y197.01 E54.36195
G1 X195.975 Y197.081 E54.37117
G1 X194.66 Y197.338 E54.41574
G1 X194.543 Y197.353 E54.41966
G1 X193.588 Y197.43 E54.45153
G1 X193.23 Y197.442 E54.46344
G1 X192.974 Y197.448 E54.47196
G1 X192.651 Y197.45 E54.4827
G1 X42.36 Y197.448 E59.4814
G1 X41.663 Y197.438 E59.50459
G1 X40.544 Y197.36 E59.54189
G1 X40.304 Y197.33 E59.54994
G1 X39.414 Y197.179 E59.57996
G1 X38.561 Y196.955 E59.6093
G1 X38.318 Y196.88 E59.61775
G1 X37.468 Y196.576 E59.64778
G1 X36.983 Y196.363 E59.6654
G1 X36.847 Y196.299 E59.6704
G1 X35.702 Y195.668 E59.71388
G1 X35.431 Y195.495 E59.72457
G1 X34.692 Y194.975 E59.75463
G1 X34.001 Y194.393 E59.78468
G1 X33.496 Y193.893 E59.80831
G1 X33.25 Y193.632 E59.82024
G1 X32.661 Y192.948 E59.85026
G1 X31.966 Y191.948 E59.89077
G1 X31.833 Y191.73 E59.89926
G1 X31.397 Y190.939 E59.9293
G1 X31.102 Y190.285 E59.95316
G1 X31.018 Y190.08 E59.96053
G1 X30.713 Y189.23 E59.99057
G1 X30.513 Y188.488 E60.01613
G1 X30.451 Y188.217 E60.02538
G1 X30.289 Y187.328 E60.05543
G1 X30.22 Y186.665 E60.0776
G1 X30.205 Y186.454 E60.08464
G1 X30.18 Y185.847 E60.10484
G1 X30.172 Y185.116 E60.12916
G1 X30.174 Y49.693 E64.63334
G1 X30.182 Y49.176 E64.65054
G1 X30.211 Y48.552 E64.67132
G1 X30.231 Y48.292 E64.67999
G1 X30.35 Y47.337 E64.712
G1 X30.383 Y47.146 E64.71845
G1 X30.576 Y46.264 E64.74848
G1 X30.833 Y45.439 E64.77722
G1 X30.932 Y45.163 E64.78697
G1 X31.41 Y44.045 E64.82741
G1 X31.461 Y43.943 E64.8312
G1 X31.9 Y43.154 E64.86123
G1 X32.396 Y42.422 E64.89064
G1 X32.578 Y42.177 E64.90079
G1 X33.148 Y41.477 E64.93082
G1 X33.759 Y40.847 E64.96001
G1 X33.978 Y40.64 E64.97003
G1 X34.662 Y40.05 E65.00008
G1 F1500 E58.50008
G0 F6000 X46.972 Y170.427
G0 X46.972 Y170.892
G1 F1500 E65.00008
G1 F1200 X72.772 Y170.892 E65.85819
G1 X72.772 Y180.65 E66.18274
G1 X46.972 Y180.65 E67.04085
G1 X46.972 Y170.892 E67.3654
G0 F6000 X46.572 Y170.492
G1 F1200 X73.172 Y170.492 E68.25012
G1 X73.172 Y181.05 E68.60128
G1 X46.572 Y181.05 E69.486
G1 X46.572 Y170.492 E69.83716
G0 F6000 X46.172 Y170.092
G1 F1200 X73.572 Y170.092 E70.74849
G1 X73.572 Y181.45 E71.12626
G1 X46.172 Y181.45 E72.03759
G1 X46.172 Y170.092 E72.41536
G0 F6000 X45.772 Y169.692
G1 F1200 X73.972 Y169.692 E73.35329
G1 X73.972 Y181.85 E73.75767
G1 X45.772 Y181.85 E74.6956
G1 X45.772 Y169.692 E75.09998
G0 F6000 X45.372 Y169.292
G1 F1200 X74.372 Y169.292 E76.06453
G1 X74.372 Y182.25 E76.49551
G1 X45.372 Y182.25 E77.46005
G1 X45.372 Y169.292 E77.89104
G0 F6000 X44.972 Y168.892
G1 F1200 X74.772 Y168.892 E78.88219
G1 X74.772 Y182.65 E79.33978
G1 X44.972 Y182.65 E80.33094
G1 X44.972 Y168.892 E80.78853
G0 F6000 X44.572 Y168.492
G1 F1200 X75.172 Y168.492 E81.80629
G1 X75.172 Y183.05 E82.29049
G1 X44.572 Y183.05 E83.30825
G1 X44.572 Y168.492 E83.79245
G0 F6000 X44.172 Y168.092
G1 F1200 X75.572 Y168.092 E84.83682
G1 X75.572 Y183.45 E85.34763
G1 X44.172 Y183.45 E86.392
G1 X44.172 Y168.092 E86.90281
G0 F6000 X43.772 Y167.692
G1 F1200 X75.972 Y167.692 E87.97378
G1 X75.972 Y183.85 E88.5112
G1 X43.772 Y183.85 E89.58218
G1 X43.772 Y167.692 E90.11959
G0 F6000 X43.372 Y167.292
G1 F1200 X76.372 Y167.292 E91.21718
G1 X76.372 Y184.25 E91.7812
G1 X43.372 Y184.25 E92.87879
G1 X43.372 Y167.292 E93.44281
G0 F6000 X44.783 Y163.158
G1 F1200 X44.497 Y163.239 E93.4527
G1 X44.201 Y163.233 E93.46255
G1 X43.92 Y163.139 E93.4724
G1 X43.673 Y162.96 E93.48255
G1 X43.496 Y162.727 E93.49228
G1 X43.393 Y162.446 E93.50223
G1 X43.381 Y162.151 E93.51205
G1 X43.454 Y161.863 E93.52194
G1 X43.609 Y161.609 E93.53183
G1 X43.833 Y161.41 E93.5418
G1 X44.1 Y161.292 E93.55151
G1 X44.397 Y161.255 E93.56146
G1 X44.699 Y161.307 E93.57165
G1 X44.945 Y161.434 E93.58086
G1 X45.163 Y161.645 E93.59095
G1 X45.31 Y161.911 E93.60106
G1 X45.367 Y162.19 E93.61053
G1 X45.339 Y162.49 E93.62055
G1 X45.225 Y162.765 E93.63046
G1 X45.039 Y162.99 E93.64016
G1 X44.783 Y163.158 E93.65035
G0 F6000 X44.609 Y162.796
G1 F1200 X44.36 Y162.845 E93.65879
G1 X44.105 Y162.783 E93.66752
G1 X43.897 Y162.608 E93.67656
G1 X43.786 Y162.361 E93.68557
G1 X43.795 Y162.105 E93.69409
G1 X43.917 Y161.865 E93.70304
G1 X44.116 Y161.711 E93.71141
G1 X44.383 Y161.655 E93.72048
G1 X44.643 Y161.718 E93.72938
G1 X44.846 Y161.89 E93.73823
G1 X44.956 Y162.131 E93.74704
G1 X44.951 Y162.388 E93.75559
G1 X44.829 Y162.633 E93.76469
G1 X44.609 Y162.796 E93.7738
G0 F6000 X44.365 Y162.444
G1 F1200 X44.235 Y162.386 E93.77854
G1 X44.178 Y162.271 E93.7828
G1 X44.223 Y162.124 E93.78792
G1 X44.377 Y162.056 E93.79352
G1 X44.525 Y162.13 E93.79902
G1 X44.564 Y162.271 E93.80389
G1 X44.507 Y162.389 E93.80824
G1 X44.365 Y162.444 E93.81331
G1 F1500 E87.31331
G0 F6000 X52.439 Y166.897
G0 X76.719 Y166.945
G0 X76.782 Y180.324
G0 X81.44 Y182.895
G1 F1500 E93.81331
G1 F1200 X81.592 Y182.631 E93.82344
G1 X81.797 Y182.435 E93.83287
G1 X82.065 Y182.302 E93.84283
G1 X82.351 Y182.254 E93.85247
G1 X82.657 Y182.294 E93.86274
G1 X82.914 Y182.415 E93.87218
G1 X83.138 Y182.613 E93.88213
G1 X83.288 Y182.858 E93.89168
G1 X83.363 Y183.145 E93.90155
G1 X83.35 Y183.441 E93.9114
G1 X83.254 Y183.716 E93.92109
G1 X83.083 Y183.947 E93.93065
G1 X82.849 Y184.126 E93.94045
G1 X82.563 Y184.229 E93.95056
G1 X82.215 Y184.233 E93.96213
G1 X81.945 Y184.15 E93.97153
G1 X81.696 Y183.982 E93.98152
G1 X81.508 Y183.748 E93.9915
G1 X81.403 Y183.481 E94.00105
G1 X81.377 Y183.187 E94.01086
G1 X81.44 Y182.895 E94.0208
G0 F6000 X81.791 Y183.117
G1 F1200 X81.908 Y182.877 E94.02968
